X:178
T:Oyster girl - Friend
%%VWML:SBG-1-2-308-0
F:http://www.vwml.org/record/SBG/1/2/308
Z:Original Sibelius transcriptions by M. & S. Graebe
M:2/4
I:linebreak $
K:C
V:1 treble nm="P1"
V:1
 G | c2 cd | c2 GF | EF GE | C3 C | CD EF | GA Bc | dG BA |$ G3 c | e2 ec | d2 de | cB cA | GE CE | %13
 G2 AB | c2 EF | G3- D | C4 | %17

